X:1
T:Title
%%score { ( 1 3 ) | ( 2 4 ) }
L:1/8
M:4/8
K:D
V:1 treble nm="Grand Piano"
V:3 treble 
V:2 bass 
V:4 bass 
V:1
 z2 z[Q:1/4=100] D | FFF[FA] | [GB][FA][FA]D | [DF][DF][CE][CE] |[M:3/8] D3 |[M:1/8] D | %6
[M:2/4] FF F[FA] | [GB][FA] [FA][F,D] | [A,DF][A,DF][K:bass] [G,CE][G,CE] |[M:3/8] [F,D]3 | %10
[M:1/8][K:treble] A |[M:2/4] A4 | A4 | [FB][FA] [FB][Fd] |[M:3/8] [FB][FA]F |[M:1/8] D | %16
[M:2/4] F4 | F4 | GF G[GB] |[M:3/8] [GB][FA]F |[M:1/8] D |[M:2/4] [DF] [CE]2 [DF] | %22
 [EG] [EG]2 [EG] | [EG] [DF]2 [EG] |[M:3/8] [FA] [FA]2 |[M:1/8] D |[M:2/4] FF F[FA] | %27
 [GB][FA] [FA][F,D] | [A,DF][A,DF][K:bass] [G,CE][G,CE] |[M:11/8] [F,D]3 z z z z z z z2 |] %30
V:2
 z2 z [D,F,] | [D,A,D][D,A,D][D,A,D][D,D] | [D,D][D,D][D,D][D,F,] | [A,,A,][A,,A,][A,,G,][A,,G,] | %4
[M:3/8] [D,F,]3 |[M:1/8] [D,F,] |[M:2/4] [D,A,D][D,A,D] [D,A,D][D,D] | [D,D][D,D] [D,D]D, | %8
 A,,A,, A,,A,, |[M:3/8] D,3 |[M:1/8][K:treble] F |[M:2/4] F4[K:bass][K:treble] | F4[K:bass] | %13
 [D,D][D,D] [D,D][D,D] |[M:3/8] [D,D][D,D][D,A,D] |[M:1/8] z |[M:2/4] D4 | D4 | %18
 [D,B,D][D,A,D] [D,B,D][D,D] |[M:3/8] [D,D][D,D][D,A,D] |[M:1/8] [D,F,] | %21
[M:2/4] [A,,A,] [A,,A,]2 [A,,A,] | [A,,A,] [A,,A,]2 [A,,A,] | [D,A,] [D,A,]2 [D,A,] | %24
[M:3/8] [D,D] [D,D]2 |[M:1/8] [D,F,] |[M:2/4] [D,A,D][D,A,D] [D,A,D][D,D] | [D,D][D,D] [D,D]D, | %28
 A,,A,, A,,A,, |[M:11/8] D,3 z z z z z z z2 |] %30
V:3
 x4 | x4 | x4 | x4 |[M:3/8] x3 |[M:1/8] x |[M:2/4] x4 | x4 | x2[K:bass] x2 |[M:3/8] x3 | %10
[M:1/8][K:treble] x |[M:2/4] z D DA | z D D[FA] | x4 |[M:3/8] x3 |[M:1/8] x |[M:2/4] z A, A,F | %17
 z A, A,F | x4 |[M:3/8] x3 |[M:1/8] x |[M:2/4] x4 | x4 | x4 |[M:3/8] x3 |[M:1/8] x |[M:2/4] x4 | %27
 x4 | x2[K:bass] x2 |[M:11/8] x11 |] %30
V:4
 x4 | x4 | x4 | x4 |[M:3/8] x3 |[M:1/8] x |[M:2/4] x4 | x4 | x4 |[M:3/8] x3 |[M:1/8][K:treble] x | %11
[M:2/4] z[K:bass] D, D,[K:treble]F | z[K:bass] D, D,[D,D] | x4 |[M:3/8] x3 |[M:1/8] x | %16
[M:2/4] z D, D,D | z D, D,[D,A,D] | x4 |[M:3/8] x3 |[M:1/8] x |[M:2/4] x4 | x4 | x4 |[M:3/8] x3 | %25
[M:1/8] x |[M:2/4] x4 | x4 | x4 |[M:11/8] x11 |] %30

